icons/src/scalable/devices/uninterruptible-power-supply-symbolic.svg

<?xml version="1.0" encoding="UTF-8" standalone="no"?>
<svg
   xmlns:dc="http://purl.org/dc/elements/1.1/"
   xmlns:cc="http://creativecommons.org/ns#"
   xmlns:rdf="http://www.w3.org/1999/02/22-rdf-syntax-ns#"
   xmlns:svg="http://www.w3.org/2000/svg"
   xmlns="http://www.w3.org/2000/svg"
   xmlns:sodipodi="http://sodipodi.sourceforge.net/DTD/sodipodi-0.dtd"
   xmlns:inkscape="http://www.inkscape.org/namespaces/inkscape"
   height="16"
   width="16"
   version="1.1"
   id="svg8"
   sodipodi:docname="uninterruptible-power-supply-symbolic.svg"
   inkscape:version="1.0.2 (e86c870879, 2021-01-15)">
  <metadata
     id="metadata14">
    <rdf:RDF>
      <cc:Work
         rdf:about="">
        <dc:format>image/svg+xml</dc:format>
        <dc:type
           rdf:resource="http://purl.org/dc/dcmitype/StillImage" />
        <dc:title />
      </cc:Work>
    </rdf:RDF>
  </metadata>
  <defs
     id="defs12" />
  <sodipodi:namedview
     pagecolor="#ffffff"
     bordercolor="#666666"
     borderopacity="1"
     objecttolerance="10"
     gridtolerance="10"
     guidetolerance="10"
     inkscape:pageopacity="0"
     inkscape:pageshadow="2"
     inkscape:window-width="1920"
     inkscape:window-height="1043"
     id="namedview10"
     showgrid="true"
     inkscape:zoom="30.5"
     inkscape:cx="14.695697"
     inkscape:cy="8"
     inkscape:window-x="1920"
     inkscape:window-y="0"
     inkscape:window-maximized="1"
     inkscape:current-layer="svg8"
     inkscape:document-rotation="0">
    <inkscape:grid
       type="xygrid"
       id="grid19" />
  </sodipodi:namedview>
  <g
     id="g46">
    <g
       fill="#808080"
       id="g8"
       transform="translate(-3)">
      <path
         color="#000000"
         d="m 6,12.338 c 0.01,0.839 -0.015,1.451 0.262,1.953 0.138,0.251 0.374,0.45 0.666,0.56 0.292,0.11 0.64,0.149 1.078,0.149 h 4.994 c 0.439,0 0.786,-0.039 1.078,-0.148 0.293,-0.11 0.526,-0.31 0.664,-0.56 0.277,-0.503 0.248,-1.115 0.258,-1.954 v -8.707 c -0.01,-0.839 0.02,-1.453 -0.258,-1.955 -0.147459,-0.2596632 -0.383002,-0.4579594 -0.664,-0.559 -0.292,-0.11 -0.643,-0.063 -1.078,-0.117 h -1 v 0 h -3 v 0 h -0.994 c -0.438,0 -0.786,0.007 -1.078,0.117 -0.292,0.11 -0.528,0.308 -0.666,0.559 -0.277,0.502 -0.252,1.116 -0.262,1.955 v 8.705 z m 1,-0.014 v -8.691 c 0.01,-0.853 0.04,-1.298 0.137,-1.475 0.016,-0.028 0.057,-0.073 0.143,-0.105 0.06,-0.023 0.298,-0.053 0.726,-0.053 h 4.994 c 0.428,0 0.664,0.03 0.727,0.053 0.085,0.032 0.125,0.077 0.14,0.105 0.095,0.173 0.123,0.618 0.133,1.475 v 8.705 c -0.01,0.854 -0.038,1.298 -0.133,1.47 -0.015,0.03 -0.055,0.074 -0.14,0.106 -0.123,0.046 -0.349,0.086 -0.727,0.086 h -4.994 c -0.378,0 -0.604,-0.04 -0.726,-0.086 -0.086,-0.032 -0.127,-0.077 -0.143,-0.105 -0.098,-0.178 -0.126,-0.62 -0.137,-1.485 z"
         font-family="sans-serif"
         font-weight="400"
         overflow="visible"
         style="line-height:normal;font-variant-ligatures:none;font-variant-position:normal;font-variant-caps:normal;font-variant-numeric:normal;font-variant-alternates:normal;font-feature-settings:normal;text-indent:0;text-align:start;text-decoration:none;text-decoration-line:none;text-decoration-style:solid;text-decoration-color:#000000;text-transform:none;shape-padding:0;isolation:auto;mix-blend-mode:normal;marker:none"
         white-space="normal"
         id="path4"
         sodipodi:nodetypes="ccssscccccccccccssccccccccssccccccssccc" />
      <path
         d="m 9.9999997,13.000001 2.5000003,-4.3636373 h -1.5 v -3.6363637 l -2.5,4.3636363 h 1.4999997 z"
         id="path6"
         style="stroke-width:0.852803" />
    </g>
    <rect
       style="color:#000000;display:inline;overflow:visible;visibility:visible;fill:#808080;fill-opacity:1;fill-rule:nonzero;stroke:none;stroke-width:1.33333;stroke-linecap:butt;stroke-linejoin:miter;stroke-miterlimit:4;stroke-dasharray:none;stroke-dashoffset:0;stroke-opacity:1;marker:none;enable-background:accumulate"
       id="rect4182"
       width="1"
       height="1"
       x="5"
       y="3"
       ry="0.5"
       rx="0.5" />
    <rect
       style="color:#000000;display:inline;overflow:visible;visibility:visible;fill:#808080;fill-opacity:1;fill-rule:nonzero;stroke:none;stroke-width:2.3094;stroke-linecap:butt;stroke-linejoin:miter;stroke-miterlimit:4;stroke-dasharray:none;stroke-dashoffset:0;stroke-opacity:1;marker:none;enable-background:accumulate"
       id="rect4182-3"
       width="3"
       height="1"
       x="7"
       y="3" />
  </g>
</svg>

<?xml version="1.0" encoding="UTF-8" standalone="no"?>
<svg
   xmlns:dc="http://purl.org/dc/elements/1.1/"
   xmlns:cc="http://creativecommons.org/ns#"
   xmlns:rdf="http://www.w3.org/1999/02/22-rdf-syntax-ns#"
   xmlns:svg="http://www.w3.org/2000/svg"
   xmlns="http://www.w3.org/2000/svg"
   xmlns:sodipodi="http://sodipodi.sourceforge.net/DTD/sodipodi-0.dtd"
   xmlns:inkscape="http://www.inkscape.org/namespaces/inkscape"
   height="16"
   width="16"
   version="1.1"
   id="svg8"
   sodipodi:docname="uninterruptible-power-supply-symbolic.svg"
   inkscape:version="1.0.2 (e86c870879, 2021-01-15)">
  <metadata
     id="metadata14">
    <rdf:RDF>
      <cc:Work
         rdf:about="">
        <dc:format>image/svg+xml</dc:format>
        <dc:type
           rdf:resource="http://purl.org/dc/dcmitype/StillImage" />
        <dc:title />
      </cc:Work>
    </rdf:RDF>
  </metadata>
  <defs
     id="defs12" />
  <sodipodi:namedview
     pagecolor="#ffffff"
     bordercolor="#666666"
     borderopacity="1"
     objecttolerance="10"
     gridtolerance="10"
     guidetolerance="10"
     inkscape:pageopacity="0"
     inkscape:pageshadow="2"
     inkscape:window-width="1366"
     inkscape:window-height="704"
     id="namedview10"
     showgrid="true"
     inkscape:zoom="30.5"
     inkscape:cx="14.695697"
     inkscape:cy="8"
     inkscape:window-x="0"
     inkscape:window-y="0"
     inkscape:window-maximized="1"
     inkscape:current-layer="svg8"
     inkscape:document-rotation="0">
    <inkscape:grid
       type="xygrid"
       id="grid19" />
  </sodipodi:namedview>
  <g
     id="g46"
     transform="translate(0.5)">
    <g
       fill="#808080"
       id="g8"
       transform="translate(-3)">
      <path
         color="#000000"
         d="m 6,12.338 c 0.01,0.839 -0.015,1.451 0.262,1.953 0.138,0.251 0.374,0.45 0.666,0.56 C 7.22,14.961 7.568,15 8.006,15 H 13 c 0.439,0 0.786,-0.039 1.078,-0.148 0.293,-0.11 0.526,-0.31 0.664,-0.56 C 15.019,13.789 14.99,13.177 15,12.338 V 3.631 C 14.99,2.792 15.02,2.178 14.742,1.676 14.594541,1.4163368 14.358998,1.2180406 14.078,1.117 13.786,1.007 13.435,1.054 13,1 H 12 V 1 H 9 V 1 H 8.006 C 7.568,1 7.22,1.007 6.928,1.117 6.636,1.227 6.4,1.425 6.262,1.676 5.985,2.178 6.01,2.792 6,3.631 v 8.705 z M 7,12.324 V 3.633 C 7.01,2.78 7.04,2.335 7.137,2.158 7.153,2.13 7.194,2.085 7.28,2.053 7.34,2.03 7.578,2 8.006,2 H 13 c 0.428,0 0.664,0.03 0.727,0.053 0.085,0.032 0.125,0.077 0.14,0.105 0.095,0.173 0.123,0.618 0.133,1.475 v 8.705 c -0.01,0.854 -0.038,1.298 -0.133,1.47 -0.015,0.03 -0.055,0.074 -0.14,0.106 C 13.604,13.96 13.378,14 13,14 H 8.006 C 7.628,14 7.402,13.96 7.28,13.914 7.194,13.882 7.153,13.837 7.137,13.809 7.039,13.631 7.011,13.189 7,12.324 Z"
         font-family="sans-serif"
         font-weight="400"
         overflow="visible"
         style="line-height:normal;font-variant-ligatures:none;font-variant-position:normal;font-variant-caps:normal;font-variant-numeric:normal;font-variant-alternates:normal;font-feature-settings:normal;text-indent:0;text-align:start;text-decoration:none;text-decoration-line:none;text-decoration-style:solid;text-decoration-color:#000000;text-transform:none;shape-padding:0;isolation:auto;mix-blend-mode:normal;marker:none"
         white-space="normal"
         id="path4"
         sodipodi:nodetypes="ccssscccccccccccssccccccccssccccccssccc" />
      <path
         d="M 9.9999997,13.000001 12.5,8.6363637 H 11 V 5 L 8.5,9.3636363 h 1.4999997 z"
         id="path6"
         style="stroke-width:0.852803" />
    </g>
    <rect
       style="color:#000000;display:inline;overflow:visible;visibility:visible;fill:#808080;fill-opacity:1;fill-rule:nonzero;stroke:none;stroke-width:1.33333;stroke-linecap:butt;stroke-linejoin:miter;stroke-miterlimit:4;stroke-dasharray:none;stroke-dashoffset:0;stroke-opacity:1;marker:none;enable-background:accumulate"
       id="rect4182"
       width="1"
       height="1"
       x="5"
       y="3"
       ry="0.5" />
    <rect
       style="color:#000000;display:inline;overflow:visible;visibility:visible;fill:#808080;fill-opacity:1;fill-rule:nonzero;stroke:none;stroke-width:2.3094;stroke-linecap:butt;stroke-linejoin:miter;stroke-miterlimit:4;stroke-dasharray:none;stroke-dashoffset:0;stroke-opacity:1;marker:none;enable-background:accumulate"
       id="rect4182-3"
       width="3"
       height="1"
       x="7"
       y="3" />
  </g>
</svg>
